X: 782
T: All Covered With Moss.
C:Cronin.
B:O'Neill's Music of Ireland
N:O'Neill's - 782
Z:Transcribed by Stephen Foy (shf@access.digex.net)
Z:abc 1.6
M:6/8
R:Jig
K:G
c2 (E E)DE|GED DED|c2 (E E)DE|cBc dcA|GED DED|DED DEF|
|EDE GAB|[1 c3 BAG:|[2 c3 BAB||G2 A BGB|AGA BGE|G2 A BGB|c3 BAB|
[1 G2 A BGB|AGA BAB|ded dcB|c3 B2 A:|[2 GBd geB|ded dBA|GED GAB|\
cdc BAG|]


